X: 172
T: No_81_Song_of_the_Flying_Feather.krn
N: Derived from No_81_Song_of_the_Flying_Feather.krn
%%abc-version 2.0
%%abcx-abcm2ps-target-version 5.9.1 (29 Sep 2008)
%%abc-creator hum2abc beta
%%abcx-conversion-date 2019/03/15 08:29:13
%%humdrum-veritas 4059941602
%%humdrum-veritas-data 3624764538
%%linebreak <none>
%%barnumbers 0
L: 1/8
M: 3/4
%%staves {1 2}
V: 1 clef=bass
V: 2 clef=bass
K: Db
[V:1] [K:clef=bass][M:3/4]D2B,2B,D ||  
[V:2] [K:clef=bass][M:3/4]G,,G,, G,,G,, G,,G,, ||  
[V:1] [M:4/4]DB,DD DDB,2 ||  
[V:2] [M:4/4]z8 ||  
[V:1] [M:3/4]D2B,2B,D ||  
[V:2] [M:3/4]z6 ||  
[V:1] [M:4/4]A,A,A,A, A,A,F,2 ||  
[V:2] [M:4/4]z8 ||  
[V:1] [M:3/4]A,2F,2D,D, ||  
[V:2] [M:3/4]z6 ||  
[V:1] [M:4/4]D,D,F,F, F,F,F,2 ||  
[V:2] [M:4/4]z8 ||  
[V:1] [M:2/4]D,D, (3D,D,D, ||  
[V:2] [M:2/4]z4 ||  
[V:1] [M:3/4]D,2-D,2D,B, ||  
[V:2] [M:3/4]z6 ||  
[V:1] [M:4/4]B,DDD DDB,2 ||  
[V:2] [M:4/4]z8 ||  
[V:1] [M:3/4]D2B,2B,D ||  
[V:2] [M:3/4]z6 ||  
[V:1] [M:4/4]A,A,A,A, A,A,F,2 ||  
[V:2] [M:4/4]z8 ||  
[V:1] [M:3/4]A,2F,2D,D, ||  
[V:2] [M:3/4]z6 ||  
[V:1] [M:4/4]D,D,F,F, F,F,F,2 ||  
[V:2] [M:4/4]z8 ||  
[V:1] [M:2/4]D,D, (3D,D,D, ||  
[V:2] [M:2/4]z4 ||  
[V:1] [M:3/4]D,4D,2 |]  
[V:2] [M:3/4]z6 |]  



